X:1
T:Dogs Among The Bushes, The
Z:transcribed by Ralph Barthine 3/8/2021
N:Approximation of accordion part; no attempt made to duplicate original guitar chords.
S:Altan "Blackwater", released on 1996-01-01, 1996 Virgin Records Ltd
S:https://www.youtube.com/watch?v=ox6Fou-BpsQ
R:reel
M:4/4
L:1/8
K:Emix
P:A1
B>A|"E"GE (3EEE B,EEE|GBEG "A"AcBA|"E"GE (3EEE B,EGE|"D"FDDD d(AB)F|
"E"GE (3EEE B,EEE|GBEG "A"AcBA|"E"GFGA BcdB|"D"AFDF dBAF|
P:A2
"E"GE (3EEE B,2EF|GBEG "A"AcBA|"E"GE (3EEE LBEEE|"D"FDDD d(AB)F|
"E"GE (3EEE B,EEF|GBEG "A"AcBA|"E"GFGA BcdB|"D"AFD(c d)BAF||
P:B
|:"E7"e2ee efed|Bee(f g)efd|"Bm"Bdd(c d)edc|Bdd(e f)ded|
"E7"Beee efed|Bee(f g)efd|"E"geed "Bm"B2B(c|d2)d(c d)BAF:|

